img/zoom-out.svg

<svg fill="none" height="40" viewBox="0 0 40 40" width="40" xmlns="http://www.w3.org/2000/svg"><path d="m13.6875 7.84375c0 1.15578-.3427 2.28565-.9848 3.24665-.6422.961-1.5548 1.71-2.6226 2.1523-1.06785.4423-2.24283.558-3.37641.3325-1.13357-.2255-2.17483-.782-2.99209-1.5993-.81727-.8173-1.37383-1.8585-1.59931-2.99209-.22548-1.13358-.10976-2.30856.33254-3.37637.4423-1.0678 1.19131-1.98047 2.15231-2.62259s2.09083-.98485 3.24661-.98485c1.54986 0 3.03625.61568 4.13215 1.71159 1.0959 1.09592 1.7116 2.5823 1.7116 4.13216z" fill="#fdfcf7"/><g fill="#70a582"><path d="m3 7.84375c0-2.67513 2.16862-4.84375 4.84375-4.84375 2.67515 0 4.84375 2.16862 4.84375 4.84375 0 2.67515-2.1686 4.84375-4.84375 4.84375-2.67513 0-4.84375-2.1686-4.84375-4.84375zm4.84375-6.84375c-3.7797 0-6.84375 3.06405-6.84375 6.84375 0 3.77965 3.06405 6.84375 6.84375 6.84375 3.77965 0 6.84375-3.0641 6.84375-6.84375 0-3.7797-3.0641-6.84375-6.84375-6.84375z" stroke="#fdfcf7"/><path d="m11.0312 6.80249h-6.35371v2.10375h6.35371z"/><path d="m12.6811 11.1837-1.5026 1.5026 5.4389 5.439c.1953.1952.5119.1952.7072 0l.7954-.7955c.1953-.1953.1953-.5119 0-.7071z"/></g><path clip-rule="evenodd" d="m10.7642 13.6863 1.2788-.1356-.543-.543 1.5-1.505.5.4973.181-1.2305 5.4996 5.4996c.3905.3905.3905 1.0237 0 1.4142l-1.5026 1.5026c-.3905.3905-1.0237.3905-1.4142 0zm2.2358-2.1836 5.12 5.12c.1952.1952.1952.5118 0 .7071l-.7955.7954c-.1953.1953-.5119.1953-.7072 0l-5.1173-5.1175z" fill="#fdfcf7" fill-rule="evenodd"/></svg>

<svg width="40" height="40" viewBox="0 0 40 40" fill="none" xmlns="http://www.w3.org/2000/svg">
<path d="M13.6875 7.84375C13.6875 8.99953 13.3448 10.1294 12.7027 11.0904C12.0605 12.0514 11.1479 12.8004 10.0801 13.2427C9.01225 13.685 7.83727 13.8007 6.70369 13.5752C5.57012 13.3497 4.52886 12.7932 3.7116 11.9759C2.89433 11.1586 2.33777 10.1174 2.11229 8.98381C1.88681 7.85023 2.00253 6.67525 2.44483 5.60744C2.88713 4.53964 3.63614 3.62697 4.59714 2.98485C5.55814 2.34273 6.68797 2 7.84375 2C9.39361 2 10.88 2.61568 11.9759 3.71159C13.0718 4.80751 13.6875 6.29389 13.6875 7.84375Z" fill="#FDFCF7"/>
<path d="M3 7.84375C3 5.16862 5.16862 3 7.84375 3C10.5189 3 12.6875 5.16862 12.6875 7.84375C12.6875 10.5189 10.5189 12.6875 7.84375 12.6875C5.16862 12.6875 3 10.5189 3 7.84375ZM7.84375 1C4.06405 1 1 4.06405 1 7.84375C1 11.6234 4.06405 14.6875 7.84375 14.6875C11.6234 14.6875 14.6875 11.6234 14.6875 7.84375C14.6875 4.06405 11.6234 1 7.84375 1Z" fill="#70A582" stroke="#FDFCF7"/>
<path d="M11.0312 6.80249H4.67749V8.90624H11.0312V6.80249Z" fill="#70A582"/>
<path d="M12.6811 11.1837L11.1785 12.6863L16.6174 18.1253C16.8127 18.3205 17.1293 18.3205 17.3246 18.1253L18.12 17.3298C18.3153 17.1345 18.3153 16.8179 18.12 16.6227L12.6811 11.1837Z" fill="#70A582"/>
<path fill-rule="evenodd" clip-rule="evenodd" d="M10.7642 13.6863L12.043 13.5507L11.5 13.0077L13 11.5027L13.5 12L13.681 10.7695L19.1806 16.2691C19.5711 16.6596 19.5711 17.2928 19.1806 17.6833L17.678 19.1859C17.2875 19.5764 16.6543 19.5764 16.2638 19.1859L10.7642 13.6863ZM13 11.5027L18.12 16.6227C18.3152 16.8179 18.3152 17.1345 18.12 17.3298L17.3245 18.1252C17.1292 18.3205 16.8126 18.3205 16.6173 18.1252L11.5 13.0077L13 11.5027Z" fill="#FDFCF7"/>
</svg>
